src/assets/background/invite-th1bg.svg

<svg width="163" height="281" viewBox="0 0 163 281" fill="none" xmlns="http://www.w3.org/2000/svg">
<path d="M142 71H163V260.742L152 269L142 261.5V71Z" fill="url(#paint0_linear_2877_96179)"/>
<path d="M152.5 265.5L163 258V261L152 269L142 261.5V258.5L152.5 265.5Z" fill="url(#paint1_linear_2877_96179)"/>
<rect width="4.2427" height="4.2427" transform="matrix(-0.707107 0.707107 0.707107 0.707107 152 261)" fill="url(#paint2_linear_2877_96179)" stroke="#FEE9A0" stroke-width="0.5"/>
<path d="M21 71H0V260.742L11 269L21 261.5V71Z" fill="url(#paint3_linear_2877_96179)"/>
<path d="M10.5 265.5L0 258V261L11 269L21 261.5V258.5L10.5 265.5Z" fill="url(#paint4_linear_2877_96179)"/>
<rect x="11" y="261" width="4.2427" height="4.2427" transform="rotate(45 11 261)" fill="url(#paint5_linear_2877_96179)" stroke="#FEE9A0" stroke-width="0.5"/>
<path d="M158 71.1034H5V240.329L82.5813 280.103L158 242.5V71.1034Z" fill="url(#paint6_linear_2877_96179)" stroke="#FEE9A0"/>
<path d="M151 80H12V234.651L82.4823 271L151 236.635V80Z" fill="url(#paint7_linear_2877_96179)" stroke="#FEE9A0"/>
<path d="M157.022 32.689C163.99 44.7354 160.056 60.195 148.092 67.4235L106.618 92.4838L93.6315 70.9916L157.022 32.689Z" fill="url(#paint8_linear_2877_96179)" stroke="#FEE9A0"/>
<path d="M153 39.5364C157.789 47.4625 155.246 57.7704 147.32 62.5596L112.187 83.7879L103.516 69.4363L153 39.5364Z" fill="url(#paint9_linear_2877_96179)"/>
<path d="M4.67688 32.689C-2.29065 44.7354 1.64353 60.195 13.6067 67.4235L55.0815 92.4838L68.0677 70.9916L4.67688 32.689Z" fill="url(#paint10_linear_2877_96179)" stroke="#FEE9A0"/>
<path d="M8.69922 39.5364C3.90999 47.4625 6.45299 57.7704 14.3792 62.5596L49.512 83.7879L58.1837 69.4363L8.69922 39.5364Z" fill="url(#paint11_linear_2877_96179)"/>
<path d="M152.624 65.747C154.741 77.7157 146.911 89.2396 134.932 91.63L93.2769 99.9418L88.9875 78.445L152.624 65.747Z" fill="url(#paint12_linear_2877_96179)" stroke="#FEE9A0"/>
<path d="M147.311 70.1289C148.902 78.101 143.729 85.8531 135.757 87.4439L100.42 94.4948L97.5402 80.0602L147.311 70.1289Z" fill="url(#paint13_linear_2877_96179)"/>
<path d="M8.54678 65.747C6.42967 77.7157 14.2598 89.2396 26.2391 91.63L67.894 99.9418L72.1834 78.445L8.54678 65.747Z" fill="url(#paint14_linear_2877_96179)" stroke="#FEE9A0"/>
<path d="M13.8599 70.1289C12.2691 78.101 17.4422 85.8531 25.4143 87.4439L60.7504 94.4948L63.6307 80.0602L13.8599 70.1289Z" fill="url(#paint15_linear_2877_96179)"/>
<defs>
<linearGradient id="paint0_linear_2877_96179" x1="195" y1="191.5" x2="153" y2="182.5" gradientUnits="userSpaceOnUse">
<stop stop-color="#FABB89"/>
<stop offset="1" stop-color="#CA1023"/>
</linearGradient>
<linearGradient id="paint1_linear_2877_96179" x1="151.594" y1="268.5" x2="151.554" y2="259.978" gradientUnits="userSpaceOnUse">
<stop stop-color="#FDDB86"/>
<stop offset="1" stop-color="#805806"/>
</linearGradient>
<linearGradient id="paint2_linear_2877_96179" x1="4.09304" y1="4.04993" x2="0.852131" y2="0.862625" gradientUnits="userSpaceOnUse">
<stop stop-color="#FDDB86"/>
<stop offset="1" stop-color="#AD780A"/>
</linearGradient>
<linearGradient id="paint3_linear_2877_96179" x1="-32" y1="191.5" x2="10" y2="182.5" gradientUnits="userSpaceOnUse">
<stop stop-color="#FABB89"/>
<stop offset="1" stop-color="#CA1023"/>
</linearGradient>
<linearGradient id="paint4_linear_2877_96179" x1="11.4065" y1="268.5" x2="11.4465" y2="259.978" gradientUnits="userSpaceOnUse">
<stop stop-color="#FDDB86"/>
<stop offset="1" stop-color="#805806"/>
</linearGradient>
<linearGradient id="paint5_linear_2877_96179" x1="15.093" y1="265.05" x2="11.8521" y2="261.863" gradientUnits="userSpaceOnUse">
<stop stop-color="#FDDB86"/>
<stop offset="1" stop-color="#AD780A"/>
</linearGradient>
<linearGradient id="paint6_linear_2877_96179" x1="88.1043" y1="280.103" x2="90.2799" y2="110.496" gradientUnits="userSpaceOnUse">
<stop stop-color="#FFCC4D"/>
<stop offset="1" stop-color="#805806"/>
</linearGradient>
<linearGradient id="paint7_linear_2877_96179" x1="87.5" y1="271" x2="89.5" y2="116" gradientUnits="userSpaceOnUse">
<stop stop-color="#FDDB86"/>
<stop offset="1" stop-color="#805806"/>
</linearGradient>
<linearGradient id="paint8_linear_2877_96179" x1="144" y1="118.536" x2="149.254" y2="38.2492" gradientUnits="userSpaceOnUse">
<stop stop-color="#B85033"/>
<stop offset="0.14" stop-color="#B05F48"/>
<stop offset="0.3" stop-color="#D96545"/>
<stop offset="0.48" stop-color="#F77E5B"/>
<stop offset="0.49" stop-color="#F27B57"/>
<stop offset="1" stop-color="#AB5315"/>
</linearGradient>
<linearGradient id="paint9_linear_2877_96179" x1="147.215" y1="42.7704" x2="123.072" y2="106.665" gradientUnits="userSpaceOnUse">
<stop offset="0.08" stop-color="#C91023"/>
<stop offset="0.43" stop-color="#F7A66C"/>
<stop offset="0.96" stop-color="#FEF1D4"/>
</linearGradient>
<linearGradient id="paint10_linear_2877_96179" x1="17.699" y1="118.536" x2="12.4453" y2="38.2492" gradientUnits="userSpaceOnUse">
<stop stop-color="#B85033"/>
<stop offset="0.14" stop-color="#B05F48"/>
<stop offset="0.3" stop-color="#D96545"/>
<stop offset="0.48" stop-color="#F77E5B"/>
<stop offset="0.49" stop-color="#F27B57"/>
<stop offset="1" stop-color="#AB5315"/>
</linearGradient>
<linearGradient id="paint11_linear_2877_96179" x1="14.4846" y1="42.7704" x2="38.6271" y2="106.665" gradientUnits="userSpaceOnUse">
<stop offset="0.08" stop-color="#C91023"/>
<stop offset="0.43" stop-color="#F7A66C"/>
<stop offset="0.96" stop-color="#FEF1D4"/>
</linearGradient>
<linearGradient id="paint12_linear_2877_96179" x1="116.325" y1="132.67" x2="144.602" y2="67.9492" gradientUnits="userSpaceOnUse">
<stop stop-color="#B85033"/>
<stop offset="0.14" stop-color="#B05F48"/>
<stop offset="0.3" stop-color="#D96545"/>
<stop offset="0.48" stop-color="#F77E5B"/>
<stop offset="0.49" stop-color="#F27B57"/>
<stop offset="1" stop-color="#AB5315"/>
</linearGradient>
<linearGradient id="paint13_linear_2877_96179" x1="141.57" y1="71.0739" x2="102.586" y2="116.628" gradientUnits="userSpaceOnUse">
<stop offset="0.08" stop-color="#C91023"/>
<stop offset="0.43" stop-color="#F7A66C"/>
<stop offset="0.96" stop-color="#FEF1D4"/>
</linearGradient>
<linearGradient id="paint14_linear_2877_96179" x1="44.8462" y1="132.67" x2="16.5693" y2="67.9492" gradientUnits="userSpaceOnUse">
<stop stop-color="#B85033"/>
<stop offset="0.14" stop-color="#B05F48"/>
<stop offset="0.3" stop-color="#D96545"/>
<stop offset="0.48" stop-color="#F77E5B"/>
<stop offset="0.49" stop-color="#F27B57"/>
<stop offset="1" stop-color="#AB5315"/>
</linearGradient>
<linearGradient id="paint15_linear_2877_96179" x1="19.6007" y1="71.0739" x2="58.5849" y2="116.628" gradientUnits="userSpaceOnUse">
<stop offset="0.08" stop-color="#C91023"/>
<stop offset="0.43" stop-color="#F7A66C"/>
<stop offset="0.96" stop-color="#FEF1D4"/>
</linearGradient>
</defs>
</svg>

<svg width="163" height="281" fill="none" xmlns="http://www.w3.org/2000/svg"><path d="M142 71h21v189.742L152 269l-10-7.5z" fill="url(#prefix__a)"/><path d="M152.5 265.5 163 258v3l-11 8-10-7.5v-3z" fill="url(#prefix__b)"/><path transform="scale(-1 1)rotate(45 -391.055 -52.98)" fill="url(#prefix__c)" stroke="#FEE9A0" stroke-width=".5" d="M0 0h4.243v4.243H0z"/><path d="M21 71H0v189.742L11 269l10-7.5z" fill="url(#prefix__d)"/><path d="M10.5 265.5 0 258v3l11 8 10-7.5v-3z" fill="url(#prefix__e)"/><path transform="rotate(45 11 261)" fill="url(#prefix__f)" stroke="#FEE9A0" stroke-width=".5" d="M11 261h4.243v4.243H11z"/><path d="M158 71.103H5V240.33l77.581 39.774L158 242.5z" fill="url(#prefix__g)" stroke="#FEE9A0"/><path d="M151 80H12v154.651L82.482 271 151 236.635z" fill="url(#prefix__h)" stroke="#FEE9A0"/><path d="M157.022 32.689c6.968 12.046 3.034 27.506-8.93 34.735l-41.474 25.06-12.986-21.492z" fill="url(#prefix__i)" stroke="#FEE9A0"/><path d="M153 39.536c4.789 7.926 2.246 18.234-5.68 23.024l-35.133 21.228-8.671-14.352z" fill="url(#prefix__j)"/><path d="M4.677 32.689c-6.968 12.046-3.033 27.506 8.93 34.735l41.475 25.06 12.986-21.492z" fill="url(#prefix__k)" stroke="#FEE9A0"/><path d="M8.7 39.536C3.91 47.462 6.452 57.77 14.38 62.56l35.132 21.228 8.672-14.352z" fill="url(#prefix__l)"/><path d="M152.624 65.747c2.117 11.969-5.713 23.493-17.692 25.883l-41.655 8.312-4.29-21.497z" fill="url(#prefix__m)" stroke="#FEE9A0"/><path d="M147.311 70.129c1.591 7.972-3.582 15.724-11.554 17.315l-35.337 7.05-2.88-14.434z" fill="url(#prefix__n)"/><path d="M8.547 65.747C6.43 77.716 14.26 89.24 26.239 91.63l41.655 8.312 4.29-21.497z" fill="url(#prefix__o)" stroke="#FEE9A0"/><path d="M13.86 70.129c-1.59 7.972 3.582 15.724 11.554 17.315l35.336 7.05 2.88-14.434z" fill="url(#prefix__p)"/><defs><linearGradient id="prefix__a" x1="195" y1="191.5" x2="153" y2="182.5" gradientUnits="userSpaceOnUse"><stop stop-color="#FABB89"/><stop offset="1" stop-color="#CA1023"/></linearGradient><linearGradient id="prefix__b" x1="151.594" y1="268.5" x2="151.554" y2="259.978" gradientUnits="userSpaceOnUse"><stop stop-color="#FDDB86"/><stop offset="1" stop-color="#805806"/></linearGradient><linearGradient id="prefix__c" x1="4.093" y1="4.05" x2=".852" y2=".863" gradientUnits="userSpaceOnUse"><stop stop-color="#FDDB86"/><stop offset="1" stop-color="#AD780A"/></linearGradient><linearGradient id="prefix__d" x1="-32" y1="191.5" x2="10" y2="182.5" gradientUnits="userSpaceOnUse"><stop stop-color="#FABB89"/><stop offset="1" stop-color="#CA1023"/></linearGradient><linearGradient id="prefix__e" x1="11.406" y1="268.5" x2="11.447" y2="259.978" gradientUnits="userSpaceOnUse"><stop stop-color="#FDDB86"/><stop offset="1" stop-color="#805806"/></linearGradient><linearGradient id="prefix__f" x1="15.093" y1="265.05" x2="11.852" y2="261.863" gradientUnits="userSpaceOnUse"><stop stop-color="#FDDB86"/><stop offset="1" stop-color="#AD780A"/></linearGradient><linearGradient id="prefix__g" x1="88.104" y1="280.103" x2="90.28" y2="110.496" gradientUnits="userSpaceOnUse"><stop stop-color="#FFCC4D"/><stop offset="1" stop-color="#805806"/></linearGradient><linearGradient id="prefix__h" x1="87.5" y1="271" x2="89.5" y2="116" gradientUnits="userSpaceOnUse"><stop stop-color="#FDDB86"/><stop offset="1" stop-color="#805806"/></linearGradient><linearGradient id="prefix__i" x1="144" y1="118.536" x2="149.254" y2="38.249" gradientUnits="userSpaceOnUse"><stop stop-color="#B85033"/><stop offset=".14" stop-color="#B05F48"/><stop offset=".3" stop-color="#D96545"/><stop offset=".48" stop-color="#F77E5B"/><stop offset=".49" stop-color="#F27B57"/><stop offset="1" stop-color="#AB5315"/></linearGradient><linearGradient id="prefix__j" x1="147.215" y1="42.77" x2="123.072" y2="106.665" gradientUnits="userSpaceOnUse"><stop offset=".08" stop-color="#C91023"/><stop offset=".43" stop-color="#F7A66C"/><stop offset=".96" stop-color="#FEF1D4"/></linearGradient><linearGradient id="prefix__k" x1="17.699" y1="118.536" x2="12.445" y2="38.249" gradientUnits="userSpaceOnUse"><stop stop-color="#B85033"/><stop offset=".14" stop-color="#B05F48"/><stop offset=".3" stop-color="#D96545"/><stop offset=".48" stop-color="#F77E5B"/><stop offset=".49" stop-color="#F27B57"/><stop offset="1" stop-color="#AB5315"/></linearGradient><linearGradient id="prefix__l" x1="14.485" y1="42.77" x2="38.627" y2="106.665" gradientUnits="userSpaceOnUse"><stop offset=".08" stop-color="#C91023"/><stop offset=".43" stop-color="#F7A66C"/><stop offset=".96" stop-color="#FEF1D4"/></linearGradient><linearGradient id="prefix__m" x1="116.325" y1="132.67" x2="144.602" y2="67.949" gradientUnits="userSpaceOnUse"><stop stop-color="#B85033"/><stop offset=".14" stop-color="#B05F48"/><stop offset=".3" stop-color="#D96545"/><stop offset=".48" stop-color="#F77E5B"/><stop offset=".49" stop-color="#F27B57"/><stop offset="1" stop-color="#AB5315"/></linearGradient><linearGradient id="prefix__n" x1="141.57" y1="71.074" x2="102.586" y2="116.628" gradientUnits="userSpaceOnUse"><stop offset=".08" stop-color="#C91023"/><stop offset=".43" stop-color="#F7A66C"/><stop offset=".96" stop-color="#FEF1D4"/></linearGradient><linearGradient id="prefix__o" x1="44.846" y1="132.67" x2="16.569" y2="67.949" gradientUnits="userSpaceOnUse"><stop stop-color="#B85033"/><stop offset=".14" stop-color="#B05F48"/><stop offset=".3" stop-color="#D96545"/><stop offset=".48" stop-color="#F77E5B"/><stop offset=".49" stop-color="#F27B57"/><stop offset="1" stop-color="#AB5315"/></linearGradient><linearGradient id="prefix__p" x1="19.601" y1="71.074" x2="58.585" y2="116.628" gradientUnits="userSpaceOnUse"><stop offset=".08" stop-color="#C91023"/><stop offset=".43" stop-color="#F7A66C"/><stop offset=".96" stop-color="#FEF1D4"/></linearGradient></defs></svg>
